img/recevez/1.svg

<svg width="160" height="160" viewBox="0 0 160 160" fill="none" xmlns="http://www.w3.org/2000/svg">
<g id="mdi:table-cog" clip-path="url(#clip0_314_584)">
<path id="Vector" d="M28.4212 20H121.755C125.291 20 128.682 21.4048 131.183 23.9052C133.683 26.4057 135.088 29.7971 135.088 33.3333V80.5334C125.057 78.8482 114.761 81.0409 106.288 86.6667H81.7546V113.333H88.9546C88.2212 117.867 88.2212 122.333 88.9546 126.667H28.4212C24.885 126.667 21.4936 125.262 18.9931 122.761C16.4926 120.261 15.0879 116.87 15.0879 113.333V33.3333C15.0879 26 21.0879 20 28.4212 20ZM28.4212 46.6667V73.3334H68.4212V46.6667H28.4212ZM81.7546 46.6667V73.3334H121.755V46.6667H81.7546ZM28.4212 86.6667V113.333H68.4212V86.6667H28.4212ZM160.288 128.8L153.155 123.333C153.288 122.2 153.421 121.133 153.421 120C153.421 118.867 153.355 117.8 153.155 116.667L160.221 111.2C160.521 110.943 160.724 110.592 160.796 110.204C160.869 109.816 160.807 109.415 160.621 109.067L153.955 97.5334C153.555 96.6667 152.688 96.6667 151.755 96.6667L143.621 100C141.755 98.8 140.021 97.6667 137.955 96.8667L136.688 88.0667C136.621 87.2667 135.888 86.6667 135.088 86.6667H121.755C120.955 86.6667 120.221 87.2667 120.088 88.0667L118.821 96.8667C116.821 97.7334 114.888 98.8 113.155 100L104.888 96.6667C104.155 96.6667 103.288 96.6667 102.821 97.5334L96.1546 109.067C95.7546 109.8 95.8879 110.667 96.5546 111.2L103.621 116.667C103.355 118.881 103.355 121.119 103.621 123.333L96.5546 128.8C96.255 129.057 96.052 129.408 95.9793 129.796C95.9066 130.184 95.9684 130.585 96.1546 130.933L102.821 142.467C103.221 143.333 104.088 143.333 104.888 143.333L113.155 140C114.888 141.2 116.755 142.333 118.821 143.133L120.088 151.933C120.221 152.733 120.888 153.333 121.755 153.333H135.088C135.888 153.333 136.621 152.733 136.755 151.933L138.021 143.133C140.021 142.267 141.755 141.2 143.621 140L151.755 143.333C152.688 143.333 153.555 143.333 154.021 142.467L160.688 130.933C160.874 130.585 160.936 130.184 160.863 129.796C160.79 129.408 160.587 129.057 160.288 128.8ZM128.421 130C122.888 130 118.421 125.533 118.421 120C118.421 114.467 122.955 110 128.421 110C133.888 110 138.421 114.467 138.421 120C138.421 125.533 134.021 130 128.421 130Z" fill="#13023E"/>
</g>
<defs>
<clipPath id="clip0_314_584">
<rect width="160" height="160" fill="white"/>
</clipPath>
</defs>
</svg>

<svg width="160" height="160" viewBox="0 0 160 160" fill="none" xmlns="http://www.w3.org/2000/svg"><g id="mdi:table-cog" clip-path="url(#clip0_314_584)"><path id="Vector" d="M28.421 20h93.334a13.335 13.335 0 0113.333 13.333v47.2a40.066 40.066 0 00-28.8 6.134H81.755v26.666h7.2c-.734 4.534-.734 9 0 13.334H28.42a13.332 13.332 0 01-13.333-13.334v-80C15.088 26 21.088 20 28.42 20zm0 26.667v26.666h40V46.667h-40zm53.334 0v26.666h40V46.667h-40zm-53.334 40v26.666h40V86.667h-40zM160.288 128.8l-7.133-5.467c.133-1.133.266-2.2.266-3.333s-.066-2.2-.266-3.333l7.066-5.467a1.732 1.732 0 00.4-2.133l-6.666-11.534c-.4-.866-1.267-.866-2.2-.866L143.621 100c-1.866-1.2-3.6-2.333-5.666-3.133l-1.267-8.8c-.067-.8-.8-1.4-1.6-1.4h-13.333c-.8 0-1.534.6-1.667 1.4l-1.267 8.8c-2 .866-3.933 1.933-5.666 3.133l-8.267-3.333c-.733 0-1.6 0-2.067.866l-6.666 11.534c-.4.733-.267 1.6.4 2.133l7.066 5.467a27.942 27.942 0 000 6.666l-7.066 5.467a1.732 1.732 0 00-.4 2.133l6.666 11.534c.4.866 1.267.866 2.067.866l8.267-3.333c1.733 1.2 3.6 2.333 5.666 3.133l1.267 8.8c.133.8.8 1.4 1.667 1.4h13.333c.8 0 1.533-.6 1.667-1.4l1.266-8.8c2-.866 3.734-1.933 5.6-3.133l8.134 3.333c.933 0 1.8 0 2.266-.866l6.667-11.534a1.732 1.732 0 00-.4-2.133zm-31.867 1.2c-5.533 0-10-4.467-10-10s4.534-10 10-10c5.467 0 10 4.467 10 10s-4.4 10-10 10z" fill="#13023E"/></g><defs><clipPath id="clip0_314_584"><path fill="#fff" d="M0 0h160v160H0z"/></clipPath></defs></svg>
